icons/Logos/soundcloud-line.svg

<svg viewBox="0 0 24 24" xmlns="http://www.w3.org/2000/svg"><path d="M4 10C4.55228 10 5 10.4477 5 11V18C5 18.5523 4.55228 19 4 19C3.44772 19 3 18.5523 3 18V11C3 10.4477 3.44772 10 4 10ZM7 11C7.55228 11 8 11.4477 8 12V18C8 18.5523 7.55228 19 7 19C6.44772 19 6 18.5523 6 18V12C6 11.4477 6.44772 11 7 11ZM10 7C10.5523 7 11 7.44772 11 8V18C11 18.5523 10.5523 19 10 19C9.44771 19 9 18.5523 9 18V8C9 7.44772 9.44771 7 10 7ZM15 6C18.2384 6 20.8776 8.56557 20.9959 11.7751L20.999 12.0353C22.6956 12.2775 24 13.7364 24 15.5C24 17.3686 22.5357 18.8951 20.692 18.9948L20.5 19H16.999C16.4468 19 15.999 18.5523 15.999 18C15.9989 17.4872 16.3849 17.0645 16.8823 17.0067L16.999 17L20.4461 17.0007L20.584 16.9977C21.3751 16.955 22 16.2975 22 15.5C22 14.7984 21.5142 14.199 20.8512 14.0409L20.7164 14.0152L18.9467 13.7626L18.999 11.976L18.9951 11.8004C18.8943 9.75011 17.2499 8.10567 15.1996 8.0049L15 8C14.7321 8 14.4687 8.02612 14.2123 8.07715L13.999 8.126L13.999 18.0005C13.999 18.5131 13.6132 18.9355 13.1161 18.9933L12.9995 19C12.4475 19 12 18.5525 11.9999 18.0005L11.999 6.80325C12.8818 6.2924 13.9067 6 15 6ZM1 12C1.55228 12 2 12.4477 2 13V17C2 17.5523 1.55228 18 1 18C0.447715 18 0 17.5523 0 17V13C0 12.4477 0.447715 12 1 12Z"/></svg>

<svg xmlns="http://www.w3.org/2000/svg" viewBox="0 0 24 24">
    <g>
        <path fill="none" d="M0 0h24v24H0z"/>
        <path d="M4 10a1 1 0 0 1 1 1v7a1 1 0 0 1-2 0v-7a1 1 0 0 1 1-1zm3 1a1 1 0 0 1 1 1v6a1 1 0 0 1-2 0v-6a1 1 0 0 1 1-1zm3-4a1 1 0 0 1 1 1v10a1 1 0 0 1-2 0V8a1 1 0 0 1 1-1zm5-1a6 6 0 0 1 5.996 5.775l.003.26a3.5 3.5 0 0 1-.307 6.96L20.5 19h-3.501a1 1 0 0 1-.117-1.993L17 17h3.447l.138-.002a1.5 1.5 0 0 0 .267-2.957l-.135-.026-1.77-.252.053-1.787-.004-.176A4 4 0 0 0 15.2 8.005L15 8c-.268 0-.531.026-.788.077L14 8.126V18a1 1 0 0 1-.883.993L13 19a1 1 0 0 1-1-1l-.001-11.197A5.972 5.972 0 0 1 15 6zM1 12a1 1 0 0 1 1 1v4a1 1 0 0 1-2 0v-4a1 1 0 0 1 1-1z"/>
    </g>
</svg>
